X:1
T:Love \& Laughter
T:Love \& Laughter
T:Anselm Lingnau
C:Anselm Lingnau
L:1/8
M:4/4
K:C
V:1 treble 
V:1
 x8 | %1
S ufe ad e ce aud/Ma ueeeug geeAda ee beve ad augee eafue .Ad .MeaTave!p! ecauefve!p! eca fed .D2 | %2
"G" B3 c d2 z2 |"D" d A3 ^F2 z2 |"C" E3 ^F G2 z2 |"G" D4 D2 z2 |"C" E3 ^F G2 z2 |"G" G D3 AB z2 | %8
"Am" c3 d cB z2 |"D" B2 A2"D7" GA z2 |"G" B3 c d2 z2 |"Em" d g3 ba z2 |"C" g3 ^f e2 z2 | %13
"Bm" d4 d2 z2 |"C" eG ed ce z2 |"G" d2 dcBA z2 |"D" BA G2 ^F2 z2 |"G" G4 :: dc |"G" Bc d2 Bd z2 | %20
"C" e^f g2 fe z2 |"D" d^f g2 a2 z2 |"G" b3 a gd z2 |"C" ed c2 ec z2 |"G" dc B2 AB z2 | %25
"Am" c3 d cB z2 |"D" B2 A2 dc z2 |"G" Bc d2 Bd z2 |"Am" e3 a ag z2 |"D" ^fg a2 d2 z2 | %30
"G" b3 d' d'c' z2 |"Em" ba g2 g^f z2 |"C" eA cd"Am" c2 z2 |"D" BA G2 ^F2 z2 |"G" G2 :| %35

